X:1
T:Weep, weep mine eyes - Wilbye
T:James Gibb editions
T:#
%%score { 1 | 2 } 3 4 5
L:1/8
Q:1/4=100
M:4/4
K:D
V:1 treble nm="Soprano 1" snm="S"
V:2 treble 
V:3 treble nm="Alto" snm="A"
V:4 treble-8 nm="Tenor" snm="T"
V:5 bass nm="Bass" snm="B"
V:1
"^Weep, weep mine eyes" z4 A4- | A4 A4 | A6 G2 | F8 | D4"^John Wilbye\n (1574-1638)" G4- | %5
w: Weep,|* weep,|weep, mine|eyes,|my heart|
[M:4/4] G4 F4 | E4 E4 | D6 z2 | z4 d4- | d4 d4 | d6 =c2 | B8 | G4 =c4- | c4 B4 | A4 A4 | G6 z2 | %16
w: * can|take no|rest,|Weep,|* weep,|weep, my|heart,|mine eyes|* shall|ne'er be|blest.|
 z4 G4 | G4 G4 | G6 =F2 | E4 e4 | d4 d4 | =c8 | z4 z2 =c2 | B4 G4 | B4 A4 | G4 z4 | z8 | z8 | %28
w: Weep|eyes, weep|heart, and|both this|ac- cent|cry:|A|thou- sand|deaths I|die,|||
 z4 z2 =c2 | B6 =c2 | d6 =c2 | B6 A2 | G4 G4 | F2 G2 A4- | A2 A2 A2 A2 | A4 A4 | F8 |: =F8 | %38
w: a|thou- sand,|thou- sand|deaths I|die, Fla-|mi- ni- a,|* a thou- sand|deaths I|die.|Ay|
 E4 z2 A2- | AAAA A2 A2 | d8 | c8 | z4 =f4- | f4 e4 | d4 d2 d2 | =c4 c4 | =c8 | A6 z2 | %48
w: me, ah,|* ah, cru- el For- tune,|ay|me!|Now,|* Le-|an- der, to|die *|fear|not.|
 z2 A2 A3 G | F2 G2 E4 | D2 B2 A3 G | F2 G2 E4 | D4 B4 | c6 d2 | e4 A4 | A4 A4 | z4 A4 | B8 | %58
w: Death, do thy|worst, I care|not, Death, do thy|worst, I care|not, Death,|do thy|worst, I|care not!|I|hope,|
 z4 c4 | d8 | z4 =f4 | e4 d4 | c4 z4 |[M:4/4] z2 AA =c3 d | e4 z2 GG | B3 =c d4 | z2 =FF A3 B | %67
w: I|hope|when|I am|dead|in E- ly- sian|plain, in E-|ly- sian plain,|in E- ly- sian|
 c2 (d4 c2) | d2 e2 =f4- | f2 (ed) e4- | e2 d2 d4- | d2 (=c_B) c4- | c2 _B2 B4- | B2 (AG) A4- | %74
w: plain, To *|meet, and there|* with * joy,|* and there|* with * joy,|* and there|* with * joy,|
 A2 A2 G4- | G4 =F4 | E4 E4 | !courtesy!^F8 :| %78
w: * with joy|* we'll|love a-|gain.|
V:2
 E8- | E4 F4 | E4 E4 | D8- | D4 E4 |[M:4/4] C4 D4 | E6 E2 | F6 z2 | A8- | A4 B4 | A4 A4 | G8- | %12
w: Weep,|* weep,|weep, mine|eyes,|* my|heart can|take no|rest,|Weep,|* weep,|weep, my|heart,|
 G4 A4 | F4 G4 | A6 A2 | B6 =c2 | d4 e4 | d4 d4 | =c6 (BA) | G4 G4 | G8- | G8 | z8 | z8 | %24
w: * mine|eyes shall|ne'er be|blest. Weep|eyes, weep|heart, and|both this *|ac- cent|cry:||||
 z4 z2 =c2 | B4 G4 | B4 (A4- | A2 G2) G4- | G2 (FE F4) | G6 z2 | z4 z2 A2 | B2 (G A B =c) d2- | %32
w: A|thou- sand|deaths I|* * die,|* I * *|die,|a|thou- sand * * * deaths|
 d2 (!courtesy!^cB c4) | d4 D4 | E4 =F4 | E6 E2 | D8 |: z4 d4 | B4 z4 | z8 | z4 D4 | A8 | z4 d4- | %43
w: * I * *|die, Fla-|mi- ni-|a, I|die.|Ay|me,||ay|me!|now,|
 d4 =c4 | _B4 B4- | B4 A4 | G8 | =F2 (A4 GF | E2 D4 C2) | D2 B2 A3 G | F2 G2 E4 | D2 B2 A3 G | %52
w: * Le-|an- der,|* to|die|I fear * *||not. Death, do thy|worst, I care|not, Death, do thy|
 F2 D2 (G2 F2) | E8- | E4 D4 | (D4 C4) | D8- | D4 D4 | E4 E4 | F8- | F4 D4 | A4 A4 | A4 z2 =ff | %63
w: worst, I care *|not,|* I|care *|not!|* I|hope, I|hope|* when|I am|dead in E-|
[M:4/4] e2 d2 e4 | z2 ee d2 =c2 | d4 z2 dd | =c2 _B2 (c3 =B | A4) A4 | A4 d2 d2- | d2 =c_B c4- | %70
w: ly- sian plain,|in E- ly- sian|plain, in E-|ly- sian plain, *|* To|meet, and there|* with * joy,|
 c2 _B2 B4- | B2 (AG) A4- | A2 G2 G4- | G2 (=FE) F2 G2 | A4 B4 | A8 | A8 | A8 :| %78
w: * and there|* with * joy,|* and there|* with * joy, with|joy we'll|love|a-|gain.|
V:3
 (C6 D2) | E4 A,4 | A,8 | A,4 D4- | D2 =C2 B,4 |[M:4/4] A,8- | A,8 | A,6 z2 | (F6 G2) | A4 D4 | %10
w: Weep, *|weep, mine|eyes,|my heart|* can take|no||rest,|Weep, *|weep, my|
 D8 | D4 G4- | G2 =F2 E4 | D8 | D8 | D2 G4 (=FE) | D4 =C4 | =C4 B,4 | (=C2 D2 E2) =F2 | %19
w: heart,|mine eyes|* shall ne'er|be|blest.|Weep eyes, weep *|heart, and|both this|ac\- * * cent|
 G3 =F E2 (D=C) | D4 D4 | E4 E4 | D4 =C4 | G4 G4 | D4 z4 | D2 D4 =C2 | B,2 G,2 A,2 A,2 | B,4 G,4 | %28
w: cry: A thou- sand *|deaths I|die, a|thou- sand|deaths I|die,|a thou- sand|thou- sand deaths I|die, I|
 A,8 | z2 B,2 G,2 A,2 | B,2 =C2 D4- | D2 =C2 (B,4- | B,2 A,2 G,2) G,2 | D2 E2 =F3 F | E4 (D4- | %35
w: die,|a thou- sand,|thou- sand deaths|* I die,|* * * I|die, Fla- mi- ni-|a, I|
 D2 CB, C4) | D8 |: A8 | A4 z2 =F2- | FE!courtesy!=FE F2 E2 | (D6 E2) | =F4 E4 | D4 A4- | A4 G4 | %44
w: |die.|Ay|me, ah,|* ah, cru- el For- tune|ay *|me, ay|me! Now,|* Le-|
 =F4 G4 | E4 =F4- | F4 E4 | (=F3 E/D/ =C3 D | E2 =F2) E4 | z2 D2 D2 C2 | D4 z2 A2- | A2 (D4 C2) | %52
w: an- der,|to die|* I|fear * * * *|* * not.|Death, do thy|worst, I|* care *|
 D2 D2 E2 D2 | C2 A,2 (A2 G=F | E4 =F4 | E8) | F4 F4 | G8- | G8 | z4 D4 | A8- | A4 =F4 | E4 z2 AA | %63
w: not, Death, do thy|worst, I care * *|||not! I|hope||when|I|* am|dead in E-|
[M:4/4] A2 =F2 A4- | A2 GG G2 E2 | G6 =FF | =F2 F2 F2 F2 | E2 =F2 E2 E2 | =F6 (FG) | A6 G2 | %70
w: ly- sian plain,|* in E- ly- sian|plain, in E-|ly- sian plain, To|meet, and there with|joy, and *|there with|
 =F6 (DE) | =F6 E2 | D6 (_B,=C) | D6 (=C_B,) | A,2 =C2 G2 =F2 | E4 D4 | E6 A,2 | A,8 :| %78
w: joy, and *|there with|joy, and *|there with *|joy, and there with|joy we'll|love a-|gain.|
V:4
 A6 (GF) | E4 D4 | E4 E4 | F4 D4 | G6 F2 |[M:4/4][K:treble-8] E4 D4- | D4 C4 | D6 z2 | d6 (=cB) | %9
w: Weep, mine *|eyes, weep,|weep, mine|eyes, my|heart can|take no||rest,|Weep, weep, *|
 A4 G4 | A4 A4 | B4 G4 | =c6 B2 | A4 (G4- | G4 F4) | G6 z2 | z4 =c4 | d4 d4 | e6 (d=c) | B4 =c4 | %20
w: weep, weep,|O my|heart, mine|eyes shall|ne'er be||blest.|Weep|eyes, weep|heart, and *|both this|
 =c4 B4 | =c4 B2 A2- | A2 G2 G2 F2 | G2 d2 d2 =c2 | B2 G2 A2 A2 | B6 =c2 | B6 =c2 | d4 e4 | =c8 | %29
w: ac- cent|cry: and both|* this ac- cent|cry: A thou- sand,|thou- sand deaths I|die, a|thou- sand|deaths I|die,|
 d2 d4 =c2 | B2 (AG) A2 A2 | (GAB=c d2) d2 | e4 e4 | A8- | A4 A4 | A8- | A8 |: d8 | A4 z2 A2- | %39
w: a thou- sand,|thou- sand * deaths I|die, * * * * Fla-|mi- ni-|a,|* I|die.||Ay|me, ah,|
 AAAA A2 A2- | A2 (G=F G4) | A8 | D8 | A8 | _B8 | =c8- | c4 =C4 | (=F3 G A3 B | %48
w: * ah, cru- el For- tune|* ay * *|me,|Now,|Le-|an-|der,|* to|die * * *|
 !courtesy!^c2) d2 A4 | d2 G2 A2 A2 | D2 d2 (d2 c2) | d4 z2 A2 | A3 A B(c d2) | A8 | A8- | A8 | %56
w: * I fear|not. Death, do thy|worst, I care *|not, Death,|do thy worst, I *|care|not!||
 A4 d4- | d2 =c2 (B2 A2) | B4 A2 G2 | A8- | A4 D4 | E4 (=F2 G2) | A4 z2 dd | %63
w: I hope|* when I *|am dead, I|hope|* when|I am *|dead in E-|
[M:4/4][K:treble-8] c2 d2 A4- | A2 =cc B2 c2 | G6 _BB | A2 _B2 =F3 G | A2 =F2 A2 A2 | A8- | A4 z4 | %70
w: ly- sian plain,|* in E- ly- sian|plain, in E-|ly- sian plain, To|meet, and there with|joy,||
 z2 (de) =f4- | f2 =c2 c4 | z2 (_B=c) d4- | d2 (=c_B) A2 G2 | =F2 =f2 e2 d2 | !courtesy!^c4 (d4- | %76
w: and * there|* with joy,|and * there|* with * joy, with|joy we'll love a-|gain, a\-|
 d4 c4) | d8 :| %78
w: |gain.|
V:5
 (A,,6 B,,2) | C,4 D,4- | D,4 C,4 | D,6 =C,2 | (B,,2 A,,2) G,,4 |[M:4/4] A,,8 | A,,8 | D,6 z2 | %8
w: Weep, *|weep, weep,|* mine|eyes, my|heart * can|take|no|rest,|
 (D,6 E,2) | F,4 G,4- | G,4 F,4 | G,6 =F,2 | (E,2 D,2) =C,4 | D,8 | D,8 | G,,6 A,,2 | B,,4 =C,4 | %17
w: Weep, *|weep, weep,|* my|heart, mine|eyes * shall|ne'er|be|blest. Weep|eyes, weep|
 G,,4 G,,4 | (=C,6 D,2 | E,4) =C,4 | G,4 G,4 | =C,6 C,2 | B,,4 A,,4 | G,,4 (G,4- | G,4 F,4) | %25
w: heart, and|both *|* this|ac- cent|cry: A|thou- sand|deaths I||
 G,4 G,4 | G,,4 D,4 | B,,4 =C,4 | A,,8 | G,,2 G,,2 G,4- | G,2 (F,E, F,4) | G,6 =F,2 | E,4 E,4 | %33
w: die, I|die, Flam-|min- ia,|I|die, a thou\-|* sand * *|deaths I|die, I|
 D,6 D,2 | C,4 D,4 | A,,4 A,,4 | D,8 |: z8 | z4 z2 D,2- | D,C,D,C, D,2 A,,2 | _B,,8 | A,,8 | z8 | %43
w: die, Fla-|mi- ni-|a, I|die.||Ah,|* ah, cru- el For- tune,|ay|me!||
 z8 | z8 | z8 | z8 | z8 | z8 | z8 | z2 G,,2 A,,2 A,,2 | D,2 G,2 A,4 | D,4 G,,4 | A,,6 B,,2 | %54
w: |||||||Death, do thy|worst, I care|not, Death,|do thy|
 C,4 D,4 | A,,8 | D,4 D,4 | G,6 =F,2 | (E,2 D,2) E,4 | D,8- | D,4 D,4 | C,4 D,4 | A,,4 z4 | %63
w: worst, I|care|not! I|hope when|I * am|dead,|* when|I am|dead|
[M:4/4] z8 | z8 | z8 | z8 | z4 z2 A,,A,, | D,6 D,2 | A,8 | _B,8 | =F,8 | G,8 | D,6 E,2 | =F,4 G,4 | %75
w: ||||in E-|ly- sian|plain|To|meet,|and|there with|joy we'll|
 A,8 | A,,8 | D,8 :| %78
w: love|a-|gain.|

